X:1
T:Title
%%score [ 1 2 3 4 ]
L:1/8
Q:1/4=96
M:4/4
K:C
V:1 treble nm="Soprano"
V:2 treble nm="Alto"
V:3 treble-8 nm="Tenor"
V:4 bass nm="Bass"
V:1
"^Andante" !fermata!A8 | !fermata!c8 | z8 | z8 | z8 | z8 | z8 | z8 | z8 | (A3 B c2) c2 | %10
w: Lord!|Lord!||||||||Lord, _ _ have|
 c2 B2 z2 B2 | (B2 f2 e2) d2 | c2 e2 d2 c2 | B6 E2 | A4 (c2 e2) | e4 ^d4 | z2 B2 e2 =d2 | %17
w: mer- cy, have|mer- * * cy|u- pon us, have|mer- cy,|Lord, have _|mer- cy,|have mer- cy|
 (d4 ^c3) d | d4 f4- | f2 e2 d2 c2 | (B4 c2) B2 | A4 (d2 c2) | B8 | (A3 B c2) c2 | c2 B2 z2 B2 | %25
w: u- * pon|us, and|_ in- cline our|heart _ to|keep thy _|law.|Lord, * * have|mer- cy, have|
 (B2 f2 e2) d2 | (c4 B2) B2 | (c4 ^c4 | d4 ^d4) | e4 (e2 =d2) | ^c3 c d2 e2 | A4 f2 e2 | ^d4 d3 d | %33
w: mer- * * cy,|Lord, * have|mer- *|­- *|cy, and _|write all these thy|laws in our|hearts we be-|
 e4 B4 | z8 | z4 A4 | A3 B c2 c2 | (c2 B4) B2 | (B2 f2) e2 d2 | (c4 ^c4 | d4 ^d4) | e6 A2 | %42
w: ­seech thee,||and|write all these thy|laws, _ thy|laws _ in our|hearts _|_ _|we be-|
 (A4 ^G4) | !fermata!A8 |] %44
w: seech _|thee!|
V:2
 !fermata!E8 | !fermata!A8 | z8 | z8 | z8 | (E3 ^F G2) G2 | G2 ^F2 z2 F2 | (^F2 c2 B2) A2 | %8
w: Lord!|Lord!||||Lord, _ _ have|mer- cy, have|mer- * * cy|
 ^G4 (A2 =G2) | (G2 F2) E4 | (D4 F2) A2 | A4 ^G4 | (A4 ^G2) A2 | A2 (=G^F) E2 E2 | (E4 ^D2) E2 | %15
w: u- pon _|us, _ have|mer- * cy|u- pon|us, _ have|mer- cy _ u- pon|us, * have|
 A4 ^F4 | B2 ^G2 E4- | E2 =G4 E2 | A4 A4 | G4 F2 E2 | (D2 G4) E2 | A6 A2 | (G2 F2 E4-) | %23
w: mer- cy|u- pon us,|_ u- pon|us, and|in- cline our|heart _ to|keep thy|law. _ _|
 (E4 ^D2) E2 | (F4 ^F4 | G4 ^G4) | A4 z2 E2 | (E4 A4-) | A2 A2 A2 ^F2 | B4 (B2 ^G2) | A3 A A2 =G2 | %31
w: _ _ Have|mer- *||cy, have|mer- *|­ cy u- pon|us, and _|write all these thy|
 F4 A2 A2 | A4 B2 A2 | ^G4 E2 E2 | E3 ^F =G2 G2 | (G2 ^F4) F2 | (A2 E4) E2 | (F4 ^F4) | G4 ^G4 | %39
w: laws in our|hearts we be-|­seech thee, and|write all these thy|laws, _ thy|laws, _ thy|laws _|in our|
 A8- | A6 B2- | B4 E4 | E8 | !fermata!E8 |] %44
w: hearts|_ we|_ be-|seech|thee!|
V:3
 !fermata!c8 | !fermata!e8 | A3 B c2 c2 | c2 B2 z2 B2 | (B2 f2 e2) d2 | c4 B4 | A4 (c2 e2) | %7
w: Lord!|Lord!|Lord, * * have|mer- cy, have|mer- * * cy|u- pon|us, have _|
 e4 ^d4 | (e2 =d2) ^c4 | d4 A4 | F4 D4 | d2 B2 e4- | (e2 c2) B2 A2 | B4 z2 B2 | c4 A4 | z4 B2 c2 | %16
w: mer- cy|u- * pon|us, have|mer- cy|u- pon us,|_ _ u- pon|us, have|mer- cy|u- pon|
 B4 _B4- | B2 _B2 A2 A2 | A4 d2 c2 | =B2 c2 A4 | z2 d2 c4- | c2 e2 d4- | d6 d2 | (c2 B2) A4- | %24
w: us, mer-|* cy u- pon|us, and in-|cline our heart|to keep|_ thy law.|_ Have|mer- * cy,|
 A2 A2 d4- | d2 d2 c2 B2 | e4 z2 B2 | A8- | A2 A2 B2 c2 | B4 (B2 e2) | e3 e A2 A2 | A4 d2 =c2 | %32
w: _ have mer-|* cy u- pon|us, have|mer-|­ cy u- pon|us, and _|write all these thy|laws in our|
 B4 B2 B2 | B4 ^G2 G2 | A4 z2 A2 | A3 B c2 c2 | (c2 B4) A2 | (d4 ^d4) | e6 e2 | (e4 =g4 | %40
w: hearts we be-|­seech thee, and|write, and|write all these thy|laws, _ thy|laws _|in our|hearts _|
 ^f4 =f4) | (e2 d4) c2 | (c4 B4) | !fermata!c8 |] %44
w: _ _|we _ be-|seech _|thee!|
V:4
 !fermata!A,,8 | !fermata!A,8 | z8 | z8 | z8 | z8 | z8 | z8 | z8 | z8 | z8 | z8 | z8 | %13
w: Lord!|Lord!||||||||||||
 (E,3 ^F, G,2) G,2 | G,2 ^F,2 z2 F,2 | (^F,2 C2 B,2) A,2 | (^G,4 =G,4-) | G,2 E,2 A,2 G,2 | %18
w: Lord, _ _ have|mer- cy, have|mer- * * cy,|mer- *|* cy u- pon|
 (F,2 E,2) D,4- | D,3 E, F,2 F,2 | (F,4 E,2) C,2 | F,6 ^F,2 | G,4 C,4 | (=F,6 E,2 | D,4) B,,4 | %25
w: us, * and|_ in- cline our|heart * to|keep thy|law, thy|law, _|_ thy|
 E,8 | (E,3 ^F, G,2) G,2 | G,2 ^F,2 z2 F,2 | ^F,2 C2 B,2 A,2 | ^G,4 (G,2 E,2) | A,3 =G, F,2 ^C,2 | %31
w: law.|Lord, _ _ have|mer- cy, have|mer- cy u- pon|us, and _|write all these thy|
 D,4 z4 | z4 B,,4 | E,2 B,,2 E,2 D,2 | (C,4 ^C,4) | D,4 ^D,4 | E,8- | E,8- | (E,2 D2) C2 B,2 | %39
w: laws,|and|write all these thy|laws _|in our|hearts,|_|* * in our|
 A,8- | (A,2 C2 B,2 A,2) | ^G,4 A,4 | E,8 | !fermata!A,,8 |] %44
w: hearts|_ _ _ _|we be-|seech|thee!|

